; generated by PrusaSlicer 2.2.0+win64 on 2020-07-04 at 22:48:16 UTC

; 

; external perimeters extrusion width = 0.25mm
; perimeters extrusion width = 0.25mm
; infill extrusion width = 0.25mm
; solid infill extrusion width = 0.25mm
; top infill extrusion width = 0.25mm
; first layer extrusion width = 0.30mm

M73 P0 R58
M201 X9000 Y9000 Z500 E10000 ; sets maximum accelerations, mm/sec^2
M203 X500 Y500 Z12 E120 ; sets maximum feedrates, mm/sec
M204 P2000 R1500 T2000 ; sets acceleration (P, T) and retract acceleration (R), mm/sec^2
M205 X10.00 Y10.00 Z0.20 E2.50 ; sets the jerk limits, mm/sec
M205 S0 T0 ; sets the minimum extruding and travel feed rate, mm/sec
M107
M862.3 P "MK2S" ; printer model check
M862.1 P0.25 ; nozzle diameter check
M115 U3.2.3 ; tell printer latest fw version
G90 ; use absolute coordinates
M83 ; extruder relative mode
M204 S2000 T1500 ; MK2 firmware only supports the old M204 format
M104 S210 ; set extruder temp
M140 S60 ; set bed temp
M190 S60 ; wait for bed temp
M109 S210 ; wait for extruder temp
G28 W ; home all without mesh bed level
G80 ; mesh bed leveling
G1 Y-3.0 F1000.0 ; go outside print area
G92 E0.0
G1 X60.0 E9.0  F1000.0 ; intro line
M73 P0 R58
G1 X100.0 E12.5 F1000.0 ; intro line
G92 E0.0
G21 ; set units to millimeters
G90 ; use absolute coordinates
M83 ; use relative distances for extrusion
M900 K0.06 ; Filament gcode LA 1.5
M900 K30 ; Filament gcode LA 1.0
;BEFORE_LAYER_CHANGE
G92 E0.0
;0.1


G1 E-1.00000 F3000.00000
G1 Z0.150 F10800.000
;AFTER_LAYER_CHANGE
;0.1
G1 X36.978 Y36.979
G1 Z0.100
G1 E1.00000 F3000.00000
M204 S500
G1 F1200.000
G1 X39.075 Y35.058 E0.03294
G1 X41.372 Y33.299 E0.03350
G1 X43.673 Y31.833 E0.03160
G1 X44.918 Y31.148 E0.01645
G1 X47.540 Y29.921 E0.03353
G1 X50.263 Y28.934 E0.03354
G1 X52.899 Y28.227 E0.03160
G1 X54.292 Y27.948 E0.01645
G1 X57.162 Y27.567 E0.03353
G1 X60.003 Y27.443 E0.03294
G1 X62.893 Y27.572 E0.03350
G1 X64.305 Y27.729 E0.01645
G1 X66.992 Y28.203 E0.03160
G1 X69.786 Y28.948 E0.03349
G1 X72.459 Y29.921 E0.03294
G1 X75.082 Y31.148 E0.03354
G1 X76.327 Y31.833 E0.01645
G1 X78.628 Y33.299 E0.03160
G1 X80.924 Y35.057 E0.03349
G1 X83.021 Y36.978 E0.03294
G1 X84.942 Y39.075 E0.03294
G1 X86.701 Y41.372 E0.03350
G1 X88.167 Y43.673 E0.03160
G1 X88.852 Y44.918 E0.01645
G1 X90.079 Y47.540 E0.03353
G1 X91.051 Y50.213 E0.03294
G1 X91.797 Y53.008 E0.03350
G1 X92.271 Y55.695 E0.03160
G1 X92.428 Y57.107 E0.01645
G1 X92.557 Y59.999 E0.03353
G1 X92.428 Y62.893 E0.03354
G1 X92.271 Y64.305 E0.01645
G1 X91.797 Y66.992 E0.03160
G1 X91.052 Y69.786 E0.03349
G1 X90.079 Y72.459 E0.03294
G1 X88.852 Y75.082 E0.03354
G1 X88.167 Y76.327 E0.01645
G1 X86.701 Y78.628 E0.03160
G1 X84.943 Y80.924 E0.03349
G1 X83.022 Y83.021 E0.03294
G1 X80.925 Y84.942 E0.03294
G1 X78.628 Y86.701 E0.03350
G1 X76.327 Y88.167 E0.03160
G1 X75.082 Y88.852 E0.01645
G1 X72.460 Y90.079 E0.03353
G1 X69.787 Y91.051 E0.03294
G1 X66.992 Y91.797 E0.03350
G1 X64.305 Y92.271 E0.03160
G1 X62.893 Y92.428 E0.01645
G1 X60.001 Y92.557 E0.03353
G1 X57.107 Y92.428 E0.03354
G1 X55.695 Y92.271 E0.01645
G1 X53.008 Y91.797 E0.03160
G1 X50.214 Y91.052 E0.03349
G1 X47.541 Y90.079 E0.03294
G1 X44.918 Y88.852 E0.03354
G1 X43.673 Y88.167 E0.01645
G1 X41.372 Y86.701 E0.03160
G1 X39.076 Y84.943 E0.03349
G1 X36.979 Y83.022 E0.03294
G1 X35.058 Y80.925 E0.03294
G1 X33.299 Y78.628 E0.03350
G1 X31.833 Y76.327 E0.03160
G1 X31.148 Y75.082 E0.01645
G1 X29.921 Y72.460 E0.03353
G1 X28.949 Y69.787 E0.03294
G1 X28.203 Y66.992 E0.03350
G1 X27.729 Y64.305 E0.03160
G1 X27.572 Y62.893 E0.01645
G1 X27.443 Y60.001 E0.03353
G1 X27.572 Y57.107 E0.03354
G1 X27.729 Y55.695 E0.01645
G1 X28.203 Y53.008 E0.03160
G1 X28.948 Y50.214 E0.03349
G1 X29.921 Y47.541 E0.03294
G1 X31.148 Y44.918 E0.03354
G1 X31.833 Y43.673 E0.01645
G1 X33.299 Y41.372 E0.03160
G1 X35.057 Y39.076 E0.03349
G1 X36.953 Y37.007 E0.03250
M204 S1000
G1 X37.158 Y37.195 F10800.000
M204 S500
G1 F1200.000
G1 X39.254 Y35.272 E0.03294
G1 X41.527 Y33.531 E0.03316
G1 X43.818 Y32.071 E0.03146
G1 X45.052 Y31.392 E0.01631
G1 X47.646 Y30.179 E0.03317
G1 X50.296 Y29.215 E0.03265
G1 X53.062 Y28.476 E0.03316
G1 X55.738 Y28.005 E0.03146
G1 X57.137 Y27.849 E0.01631
G1 X60.002 Y27.721 E0.03321
G1 X62.863 Y27.849 E0.03316
G1 X64.262 Y28.005 E0.01631
G1 X66.938 Y28.476 E0.03146
G1 X69.705 Y29.215 E0.03317
G1 X72.351 Y30.178 E0.03261
G1 X74.946 Y31.391 E0.03317
G1 X76.182 Y32.071 E0.01634
G1 X78.473 Y33.531 E0.03146
G1 X80.747 Y35.272 E0.03317
G1 X82.823 Y37.175 E0.03261
G1 X84.728 Y39.254 E0.03265
G1 X86.469 Y41.527 E0.03316
G1 X87.929 Y43.818 E0.03146
G1 X88.608 Y45.052 E0.01631
G1 X89.821 Y47.646 E0.03317
G1 X90.785 Y50.296 E0.03265
G1 X91.524 Y53.062 E0.03316
G1 X91.995 Y55.738 E0.03146
G1 X92.151 Y57.137 E0.01631
G1 X92.279 Y59.999 E0.03317
G1 X92.154 Y62.834 E0.03287
G1 X91.683 Y66.135 E0.03861
G1 X91.187 Y68.321 E0.02595
G1 X90.795 Y69.673 E0.01631
G1 X89.822 Y72.351 E0.03300
G1 X88.608 Y74.948 E0.03320
G1 X87.929 Y76.182 E0.01631
G1 X86.469 Y78.473 E0.03146
G1 X84.728 Y80.747 E0.03317
G1 X82.825 Y82.823 E0.03261
G1 X80.746 Y84.728 E0.03265
G1 X78.473 Y86.469 E0.03316
G1 X76.182 Y87.929 E0.03146
G1 X74.948 Y88.608 E0.01631
G1 X72.354 Y89.821 E0.03317
G1 X69.704 Y90.785 E0.03265
G1 X66.938 Y91.524 E0.03316
G1 X64.262 Y91.995 E0.03146
G1 X62.863 Y92.151 E0.01631
G1 X60.001 Y92.279 E0.03317
G1 X57.137 Y92.151 E0.03320
G1 X55.738 Y91.995 E0.01631
G1 X53.062 Y91.524 E0.03146
G1 X50.295 Y90.785 E0.03317
G1 X47.649 Y89.822 E0.03261
G1 X45.054 Y88.609 E0.03317
G1 X43.818 Y87.929 E0.01634
G1 X41.527 Y86.469 E0.03146
G1 X39.253 Y84.728 E0.03317
G1 X37.177 Y82.825 E0.03261
G1 X35.272 Y80.746 E0.03265
G1 X33.531 Y78.473 E0.03316
G1 X32.071 Y76.182 E0.03146
G1 X31.392 Y74.948 E0.01631
G1 X30.179 Y72.354 E0.03317
G1 X29.215 Y69.704 E0.03265
G1 X28.476 Y66.938 E0.03316
G1 X28.005 Y64.262 E0.03146
G1 X27.849 Y62.863 E0.01631
G1 X27.721 Y60.001 E0.03317
G1 X27.846 Y57.166 E0.03287
G1 X28.317 Y53.865 E0.03861
G1 X28.813 Y51.679 E0.02595
G1 X29.205 Y50.327 E0.01631
G1 X30.178 Y47.649 E0.03300
G1 X31.392 Y45.052 E0.03320
G1 X32.071 Y43.818 E0.01631
G1 X33.531 Y41.527 E0.03146
G1 X35.272 Y39.253 E0.03317
G1 X37.133 Y37.222 E0.03189
M204 S1000
G1 F8640.000
G1 X39.253 Y35.273 E-0.95000
G1 E-0.05000 F3000.00000
G1 Z0.250 F10800.000
G1 X53.065 Y53.065
G1 Z0.100
G1 E1.00000 F3000.00000
M204 S500
G1 F1200.000
G1 X53.691 Y52.491 E0.00984
G1 X54.036 Y52.215 E0.00511
G1 X54.722 Y51.733 E0.00971
G1 X55.471 Y51.301 E0.01001
G1 X56.247 Y50.939 E0.00991
G1 X57.051 Y50.646 E0.00991
G1 X57.877 Y50.425 E0.00991
G1 X58.712 Y50.277 E0.00982
G1 X59.153 Y50.229 E0.00513
G1 X59.986 Y50.193 E0.00965
G1 X60.854 Y50.230 E0.01007
G1 X61.696 Y50.340 E0.00983
G1 X62.136 Y50.428 E0.00520
G1 X62.949 Y50.646 E0.00975
G1 X63.753 Y50.939 E0.00991
G1 X64.529 Y51.301 E0.00991
G1 X65.278 Y51.733 E0.01001
G1 X65.964 Y52.215 E0.00971
G1 X66.310 Y52.492 E0.00513
G1 X66.935 Y53.065 E0.00982
G1 X67.509 Y53.691 E0.00984
G1 X67.785 Y54.036 E0.00511
G1 X68.267 Y54.722 E0.00971
G1 X68.699 Y55.471 E0.01001
G1 X69.061 Y56.247 E0.00991
G1 X69.354 Y57.051 E0.00991
G1 X69.576 Y57.883 E0.00997
G1 X69.723 Y58.712 E0.00975
G1 X69.771 Y59.153 E0.00513
G1 X69.808 Y60.000 E0.00982
G1 X69.770 Y60.855 E0.00991
G1 X69.660 Y61.696 E0.00982
G1 X69.572 Y62.136 E0.00520
G1 X69.354 Y62.949 E0.00975
G1 X69.061 Y63.753 E0.00991
G1 X68.699 Y64.529 E0.00991
G1 X68.267 Y65.278 E0.01001
G1 X67.785 Y65.964 E0.00971
G1 X67.508 Y66.310 E0.00513
G1 X66.935 Y66.935 E0.00982
G1 X66.309 Y67.509 E0.00984
G1 X65.964 Y67.785 E0.00511
G1 X65.278 Y68.267 E0.00971
G1 X64.529 Y68.699 E0.01001
G1 X63.753 Y69.061 E0.00991
G1 X62.957 Y69.351 E0.00982
G1 X62.531 Y69.475 E0.00513
G1 X61.709 Y69.658 E0.00975
G1 X60.855 Y69.770 E0.00997
G1 X60.000 Y69.808 E0.00991
G1 X59.145 Y69.770 E0.00991
G1 X58.304 Y69.660 E0.00982
G1 X57.864 Y69.572 E0.00520
G1 X57.051 Y69.354 E0.00975
G1 X56.247 Y69.061 E0.00991
G1 X55.471 Y68.699 E0.00991
G1 X54.722 Y68.267 E0.01001
G1 X54.036 Y67.785 E0.00971
G1 X53.690 Y67.508 E0.00513
G1 X53.065 Y66.935 E0.00982
G1 X52.491 Y66.309 E0.00984
G1 X52.215 Y65.964 E0.00511
G1 X51.733 Y65.278 E0.00971
G1 X51.301 Y64.529 E0.01001
G1 X50.939 Y63.753 E0.00991
G1 X50.646 Y62.949 E0.00991
G1 X50.424 Y62.117 E0.00997
G1 X50.277 Y61.288 E0.00975
G1 X50.229 Y60.847 E0.00513
G1 X50.192 Y60.000 E0.00982
G1 X50.230 Y59.145 E0.00991
G1 X50.340 Y58.304 E0.00982
G1 X50.428 Y57.864 E0.00520
G1 X50.646 Y57.051 E0.00975
G1 X50.939 Y56.247 E0.00991
G1 X51.301 Y55.471 E0.00991
G1 X51.733 Y54.722 E0.01001
G1 X52.215 Y54.036 E0.00971
G1 X52.492 Y53.690 E0.00513
G1 X53.040 Y53.092 E0.00939
M204 S1000
G1 X53.245 Y53.281 F10800.000
M204 S500
G1 F1200.000
G1 X53.873 Y52.702 E0.00988
G1 X54.203 Y52.438 E0.00490
G1 X54.872 Y51.969 E0.00947
G1 X55.600 Y51.548 E0.00973
G1 X56.353 Y51.196 E0.00963
G1 X57.135 Y50.912 E0.00963
G1 X57.938 Y50.697 E0.00963
G1 X58.752 Y50.553 E0.00957
G1 X59.174 Y50.507 E0.00492
G1 X59.986 Y50.471 E0.00941
G1 X60.830 Y50.507 E0.00979
G1 X61.650 Y50.615 E0.00958
G1 X62.073 Y50.700 E0.00499
G1 X62.865 Y50.912 E0.00950
G1 X63.647 Y51.196 E0.00963
G1 X64.400 Y51.548 E0.00963
G1 X65.128 Y51.969 E0.00973
G1 X65.797 Y52.438 E0.00947
G1 X66.129 Y52.704 E0.00492
G1 X66.738 Y53.262 E0.00957
G1 X67.298 Y53.873 E0.00959
G1 X67.562 Y54.203 E0.00490
G1 X68.031 Y54.872 E0.00947
G1 X68.452 Y55.600 E0.00973
G1 X68.804 Y56.353 E0.00963
G1 X69.088 Y57.135 E0.00963
G1 X69.304 Y57.943 E0.00969
G1 X69.447 Y58.752 E0.00951
G1 X69.493 Y59.174 E0.00492
G1 X69.529 Y60.000 E0.00957
G1 X69.493 Y60.831 E0.00963
G1 X69.385 Y61.650 E0.00957
G1 X69.300 Y62.073 E0.00499
G1 X69.088 Y62.865 E0.00950
G1 X68.804 Y63.647 E0.00963
G1 X68.452 Y64.400 E0.00963
G1 X68.031 Y65.128 E0.00973
G1 X67.562 Y65.797 E0.00947
G1 X67.296 Y66.129 E0.00492
G1 X66.738 Y66.738 E0.00957
G1 X66.127 Y67.298 E0.00959
G1 X65.797 Y67.562 E0.00490
G1 X65.128 Y68.031 E0.00947
G1 X64.400 Y68.452 E0.00973
G1 X63.647 Y68.804 E0.00963
G1 X62.870 Y69.086 E0.00957
G1 X62.462 Y69.205 E0.00492
G1 X61.660 Y69.383 E0.00951
G1 X60.831 Y69.493 E0.00969
G1 X60.000 Y69.529 E0.00963
G1 X59.169 Y69.493 E0.00963
G1 X58.350 Y69.385 E0.00957
G1 X57.927 Y69.300 E0.00499
G1 X57.135 Y69.088 E0.00950
G1 X56.353 Y68.804 E0.00963
G1 X55.600 Y68.452 E0.00963
G1 X54.872 Y68.031 E0.00973
G1 X54.203 Y67.562 E0.00947
G1 X53.871 Y67.296 E0.00492
G1 X53.262 Y66.738 E0.00957
G1 X52.702 Y66.127 E0.00959
G1 X52.438 Y65.797 E0.00490
G1 X51.969 Y65.128 E0.00947
G1 X51.548 Y64.400 E0.00973
G1 X51.196 Y63.647 E0.00963
G1 X50.912 Y62.865 E0.00963
G1 X50.696 Y62.057 E0.00969
G1 X50.553 Y61.248 E0.00951
G1 X50.507 Y60.826 E0.00492
G1 X50.471 Y60.000 E0.00957
G1 X50.507 Y59.169 E0.00963
G1 X50.615 Y58.350 E0.00957
G1 X50.700 Y57.927 E0.00499
G1 X50.912 Y57.135 E0.00950
G1 X51.196 Y56.353 E0.00963
G1 X51.548 Y55.600 E0.00963
G1 X51.969 Y54.872 E0.00973
G1 X52.438 Y54.203 E0.00947
G1 X52.704 Y53.871 E0.00492
G1 X53.220 Y53.308 E0.00885
M204 S1000
G1 X53.425 Y53.496 F10800.000
M204 S500
G1 F1200.000
G1 X54.054 Y52.914 E0.00993
G1 X54.370 Y52.660 E0.00469
G1 X55.022 Y52.204 E0.00922
G1 X55.729 Y51.795 E0.00945
G1 X56.460 Y51.454 E0.00935
G1 X57.218 Y51.178 E0.00935
G1 X57.998 Y50.969 E0.00934
G1 X58.791 Y50.829 E0.00933
G1 X59.195 Y50.785 E0.00471
G1 X59.986 Y50.750 E0.00916
G1 X60.806 Y50.785 E0.00951
G1 X61.605 Y50.890 E0.00933
G1 X62.009 Y50.971 E0.00478
G1 X62.782 Y51.178 E0.00926
G1 X63.540 Y51.454 E0.00934
G1 X64.271 Y51.795 E0.00935
G1 X64.978 Y52.204 E0.00945
G1 X65.630 Y52.660 E0.00922
G1 X65.947 Y52.915 E0.00471
G1 X66.541 Y53.459 E0.00933
G1 X67.086 Y54.054 E0.00935
G1 X67.340 Y54.370 E0.00469
G1 X67.796 Y55.022 E0.00922
G1 X68.205 Y55.729 E0.00945
G1 X68.546 Y56.460 E0.00935
G1 X68.822 Y57.218 E0.00935
G1 X69.032 Y58.003 E0.00941
G1 X69.171 Y58.791 E0.00926
G1 X69.215 Y59.195 E0.00471
G1 X69.250 Y60.000 E0.00933
G1 X69.215 Y60.806 E0.00935
G1 X69.110 Y61.605 E0.00933
G1 X69.029 Y62.009 E0.00478
G1 X68.822 Y62.782 E0.00926
G1 X68.546 Y63.540 E0.00934
G1 X68.205 Y64.271 E0.00935
G1 X67.796 Y64.978 E0.00945
G1 X67.340 Y65.630 E0.00922
G1 X67.085 Y65.947 E0.00471
G1 X66.541 Y66.541 E0.00933
G1 X65.946 Y67.086 E0.00935
G1 X65.630 Y67.340 E0.00469
G1 X64.978 Y67.796 E0.00922
G1 X64.271 Y68.205 E0.00945
G1 X63.540 Y68.546 E0.00935
G1 X62.783 Y68.821 E0.00933
G1 X62.393 Y68.935 E0.00471
G1 X61.612 Y69.109 E0.00926
G1 X60.806 Y69.215 E0.00941
G1 X60.000 Y69.250 E0.00935
G1 X59.194 Y69.215 E0.00935
G1 X58.395 Y69.110 E0.00933
G1 X57.991 Y69.029 E0.00478
G1 X57.218 Y68.822 E0.00926
G1 X56.460 Y68.546 E0.00934
G1 X55.729 Y68.205 E0.00935
G1 X55.022 Y67.796 E0.00945
G1 X54.370 Y67.340 E0.00922
G1 X54.053 Y67.085 E0.00471
G1 X53.459 Y66.541 E0.00933
G1 X52.914 Y65.946 E0.00935
G1 X52.660 Y65.630 E0.00469
G1 X52.204 Y64.978 E0.00922
G1 X51.795 Y64.271 E0.00945
G1 X51.454 Y63.540 E0.00935
G1 X51.178 Y62.782 E0.00935
G1 X50.968 Y61.997 E0.00941
G1 X50.829 Y61.209 E0.00926
G1 X50.785 Y60.805 E0.00471
G1 X50.750 Y60.000 E0.00933
G1 X50.785 Y59.194 E0.00935
G1 X50.890 Y58.395 E0.00933
G1 X50.971 Y57.991 E0.00478
G1 X51.178 Y57.218 E0.00926
G1 X51.454 Y56.460 E0.00934
G1 X51.795 Y55.729 E0.00935
G1 X52.204 Y55.022 E0.00945
G1 X52.660 Y54.370 E0.00922
G1 X52.915 Y54.053 E0.00471
G1 X53.400 Y53.524 E0.00831
M204 S1000
G1 X53.361 Y53.255 F10800.000
G1 F8640.000
G1 X54.054 Y52.914 E-0.29519
G1 X54.370 Y52.660 E-0.13363
G1 X55.022 Y52.204 E-0.26265
G1 X55.701 Y51.811 E-0.25854
G1 E-0.05000 F3000.00000
G1 Z0.250 F10800.000
G1 X65.089 Y40.329
G1 Z0.100
G1 E1.00000 F3000.00000
M204 S500
G1 F1200.000
G1 X67.195 Y33.220 E0.08586
G1 X68.906 Y33.763 E0.02079
G1 X69.929 Y34.133 E0.01260
G1 X70.937 Y34.543 E0.01260
G1 X71.928 Y34.992 E0.01260
G1 X72.901 Y35.479 E0.01260
G1 X73.854 Y36.005 E0.01260
G1 X74.785 Y36.567 E0.01260
G1 X75.694 Y37.166 E0.01260
G1 X76.578 Y37.799 E0.01260
G1 X77.437 Y38.468 E0.01260
G1 X78.269 Y39.169 E0.01260
G1 X79.595 Y40.379 E0.02079
G1 X79.101 Y40.899 E0.00831
G1 X79.621 Y40.405 E0.00831
G1 X80.831 Y41.731 E0.02079
G1 X81.532 Y42.563 E0.01260
G1 X82.201 Y43.422 E0.01260
G1 X82.834 Y44.306 E0.01260
G1 X83.433 Y45.215 E0.01260
G1 X83.995 Y46.146 E0.01260
G1 X84.521 Y47.099 E0.01260
G1 X85.008 Y48.072 E0.01260
G1 X85.457 Y49.063 E0.01260
G1 X85.867 Y50.071 E0.01260
G1 X86.237 Y51.094 E0.01260
G1 X86.780 Y52.805 E0.02079
G1 X79.671 Y54.911 E0.08586
G1 X79.216 Y53.477 E0.01742
G1 X78.945 Y52.728 E0.00923
G1 X78.645 Y51.990 E0.00923
G1 X78.316 Y51.264 E0.00923
G1 X77.959 Y50.551 E0.00923
G1 X77.574 Y49.854 E0.00923
G1 X77.162 Y49.171 E0.00923
G1 X76.724 Y48.506 E0.00923
G1 X76.260 Y47.858 E0.00923
G1 X75.770 Y47.229 E0.00923
G1 X75.257 Y46.620 E0.00923
G1 X74.361 Y45.639 E0.01539
G1 X73.380 Y44.743 E0.01539
G1 X72.771 Y44.230 E0.00923
G1 X72.142 Y43.740 E0.00923
G1 X71.494 Y43.276 E0.00923
G1 X70.829 Y42.838 E0.00923
G1 X70.146 Y42.426 E0.00923
G1 X69.449 Y42.041 E0.00923
G1 X68.736 Y41.684 E0.00923
G1 X68.010 Y41.355 E0.00923
G1 X67.272 Y41.055 E0.00923
G1 X66.523 Y40.784 E0.00923
G1 X65.125 Y40.340 E0.01698
M204 S1000
G1 X65.434 Y40.146 F10800.000
M204 S500
G1 F1200.000
G1 X67.382 Y33.571 E0.07941
G1 X68.817 Y34.027 E0.01744
G1 X69.830 Y34.393 E0.01247
G1 X70.827 Y34.799 E0.01247
G1 X71.808 Y35.243 E0.01247
G1 X72.771 Y35.726 E0.01247
G1 X73.714 Y36.246 E0.01247
G1 X74.636 Y36.803 E0.01247
G1 X75.536 Y37.395 E0.01247
G1 X76.411 Y38.023 E0.01247
G1 X77.261 Y38.684 E0.01247
G1 X78.085 Y39.378 E0.01247
G1 X79.197 Y40.393 E0.01744
G1 X74.477 Y45.367 E0.07941
G1 X73.564 Y44.534 E0.01432
G1 X72.946 Y44.013 E0.00936
G1 X72.308 Y43.517 E0.00935
G1 X71.652 Y43.047 E0.00935
G1 X70.977 Y42.602 E0.00935
G1 X70.286 Y42.185 E0.00935
G1 X69.578 Y41.795 E0.00935
G1 X68.856 Y41.433 E0.00935
G1 X68.120 Y41.099 E0.00935
G1 X67.372 Y40.795 E0.00935
G1 X66.612 Y40.520 E0.00935
G1 X65.470 Y40.157 E0.01388
M204 S1000
G1 X65.779 Y39.963 F10800.000
M204 S500
G1 F1200.000
G1 X67.568 Y33.923 E0.07296
G1 X68.727 Y34.291 E0.01408
G1 X69.730 Y34.653 E0.01235
G1 X70.717 Y35.055 E0.01235
G1 X71.688 Y35.495 E0.01235
G1 X72.641 Y35.973 E0.01235
G1 X73.575 Y36.487 E0.01235
G1 X74.488 Y37.039 E0.01235
