; generated by PrusaSlicer 2.2.0+win64 on 2020-07-05 at 19:02:48 UTC

; 

; external perimeters extrusion width = 0.25mm
; perimeters extrusion width = 0.25mm
; infill extrusion width = 0.25mm
; solid infill extrusion width = 0.25mm
; top infill extrusion width = 0.25mm
; first layer extrusion width = 0.30mm

M73 P0 R59
M201 X9000 Y9000 Z500 E10000 ; sets maximum accelerations, mm/sec^2
M203 X500 Y500 Z12 E120 ; sets maximum feedrates, mm/sec
M204 P2000 R1500 T2000 ; sets acceleration (P, T) and retract acceleration (R), mm/sec^2
M205 X10.00 Y10.00 Z0.20 E2.50 ; sets the jerk limits, mm/sec
M205 S0 T0 ; sets the minimum extruding and travel feed rate, mm/sec
M107
M862.3 P "MK2S" ; printer model check
M862.1 P0.25 ; nozzle diameter check
M115 U3.2.3 ; tell printer latest fw version
G90 ; use absolute coordinates
M83 ; extruder relative mode
M204 S2000 T1500 ; MK2 firmware only supports the old M204 format
M104 S215 ; set extruder temp
M140 S60 ; set bed temp
M190 S60 ; wait for bed temp
M109 S215 ; wait for extruder temp
G28 W ; home all without mesh bed level
G80 ; mesh bed leveling
G1 Y-3.0 F1000.0 ; go outside print area
G92 E0.0
G1 X60.0 E9.0  F1000.0 ; intro line
M73 P0 R59
G1 X100.0 E12.5 F1000.0 ; intro line
G92 E0.0
G21 ; set units to millimeters
G90 ; use absolute coordinates
M83 ; use relative distances for extrusion
M900 K0.06 ; Filament gcode LA 1.5
M900 K30 ; Filament gcode LA 1.0
;BEFORE_LAYER_CHANGE
G92 E0.0
;0.1


G1 E-1.00000 F3000.00000
G1 Z0.150 F10800.000
;AFTER_LAYER_CHANGE
;0.1
G1 X57.685 Y57.686
G1 Z0.100
G1 E1.00000 F3000.00000
M204 S500
G1 F1200.000
G1 X59.759 Y55.790 E0.03253
G1 X60.834 Y54.931 E0.01594
G1 X62.998 Y53.416 E0.03059
G1 X65.425 Y52.011 E0.03248
G1 X67.923 Y50.845 E0.03193
G1 X70.564 Y49.887 E0.03253
G1 X73.115 Y49.204 E0.03059
G1 X74.465 Y48.933 E0.01595
G1 X77.249 Y48.563 E0.03252
G1 X80.003 Y48.443 E0.03193
G1 X82.806 Y48.569 E0.03248
G1 X84.174 Y48.721 E0.01595
G1 X86.776 Y49.179 E0.03059
G1 X89.489 Y49.903 E0.03252
G1 X92.076 Y50.845 E0.03188
G1 X94.574 Y52.010 E0.03193
G1 X97.002 Y53.416 E0.03249
G1 X99.166 Y54.931 E0.03059
G1 X100.244 Y55.793 E0.01599
G1 X102.314 Y57.685 E0.03247
G1 X104.210 Y59.759 E0.03253
G1 X105.069 Y60.834 E0.01594
G1 X106.584 Y62.998 E0.03059
G1 X107.991 Y65.428 E0.03252
G1 X109.155 Y67.923 E0.03188
G1 X110.098 Y70.514 E0.03193
G1 X110.821 Y73.224 E0.03249
G1 X111.279 Y75.826 E0.03059
G1 X111.431 Y77.194 E0.01595
G1 X111.557 Y80.000 E0.03252
G1 X111.431 Y82.806 E0.03253
G1 X111.279 Y84.174 E0.01595
G1 X110.821 Y86.776 E0.03059
G1 X110.097 Y89.489 E0.03252
G1 X109.155 Y92.076 E0.03188
G1 X107.990 Y94.574 E0.03193
G1 X106.584 Y97.002 E0.03249
G1 X105.069 Y99.166 E0.03059
G1 X104.207 Y100.244 E0.01599
G1 X102.315 Y102.314 E0.03247
G1 X100.241 Y104.210 E0.03253
G1 X99.166 Y105.069 E0.01594
G1 X97.002 Y106.584 E0.03059
G1 X94.575 Y107.989 E0.03248
G1 X92.077 Y109.155 E0.03193
G1 X89.486 Y110.098 E0.03193
G1 X86.776 Y110.821 E0.03249
G1 X84.174 Y111.279 E0.03059
G1 X82.806 Y111.431 E0.01595
G1 X80.000 Y111.557 E0.03252
G1 X77.194 Y111.431 E0.03253
G1 X75.826 Y111.279 E0.01595
G1 X73.224 Y110.821 E0.03059
G1 X70.511 Y110.097 E0.03252
G1 X67.924 Y109.155 E0.03188
G1 X65.426 Y107.990 E0.03193
G1 X62.998 Y106.584 E0.03249
G1 X60.834 Y105.069 E0.03059
G1 X59.756 Y104.207 E0.01599
G1 X57.686 Y102.315 E0.03247
G1 X55.790 Y100.241 E0.03253
G1 X54.931 Y99.166 E0.01594
G1 X53.416 Y97.002 E0.03059
G1 X52.009 Y94.572 E0.03252
G1 X50.845 Y92.077 E0.03188
G1 X49.902 Y89.486 E0.03193
G1 X49.179 Y86.776 E0.03249
G1 X48.721 Y84.174 E0.03059
G1 X48.569 Y82.806 E0.01595
G1 X48.443 Y80.000 E0.03252
G1 X48.569 Y77.194 E0.03253
G1 X48.721 Y75.826 E0.01595
G1 X49.179 Y73.224 E0.03059
G1 X49.903 Y70.511 E0.03252
G1 X50.845 Y67.924 E0.03188
G1 X52.010 Y65.426 E0.03193
G1 X53.416 Y62.998 E0.03249
G1 X54.931 Y60.834 E0.03059
G1 X55.793 Y59.756 E0.01599
G1 X57.660 Y57.714 E0.03204
M204 S1000
G1 X57.865 Y57.902 F10800.000
M204 S500
G1 F1200.000
G1 X59.933 Y56.008 E0.03247
G1 X60.999 Y55.155 E0.01580
G1 X63.152 Y53.647 E0.03045
G1 X65.556 Y52.256 E0.03216
G1 X68.029 Y51.103 E0.03160
G1 X70.597 Y50.168 E0.03164
G1 X73.279 Y49.453 E0.03215
G1 X75.868 Y48.996 E0.03045
G1 X77.225 Y48.845 E0.01580
G1 X80.003 Y48.721 E0.03220
G1 X82.773 Y48.845 E0.03212
G1 X84.132 Y48.996 E0.01583
G1 X86.721 Y49.453 E0.03045
G1 X89.404 Y50.169 E0.03216
G1 X91.969 Y51.102 E0.03160
G1 X94.445 Y52.257 E0.03164
G1 X96.848 Y53.647 E0.03215
G1 X99.001 Y55.155 E0.03045
G1 X100.067 Y56.008 E0.01580
G1 X102.116 Y57.882 E0.03216
G1 X103.991 Y59.931 E0.03216
G1 X104.845 Y60.999 E0.01583
G1 X106.353 Y63.152 E0.03045
G1 X107.744 Y65.556 E0.03216
G1 X108.897 Y68.029 E0.03160
G1 X109.832 Y70.597 E0.03164
G1 X110.547 Y73.279 E0.03215
G1 X111.004 Y75.868 E0.03045
G1 X111.155 Y77.225 E0.01580
G1 X111.279 Y79.999 E0.03216
G1 X111.159 Y82.729 E0.03164
G1 X110.794 Y85.480 E0.03214
G1 X110.526 Y86.818 E0.01581
G1 X109.845 Y89.358 E0.03045
G1 X108.898 Y91.969 E0.03216
G1 X107.743 Y94.445 E0.03164
G1 X106.353 Y96.848 E0.03215
G1 X104.845 Y99.001 E0.03045
G1 X103.992 Y100.067 E0.01580
G1 X102.118 Y102.116 E0.03216
G1 X100.067 Y103.992 E0.03219
G1 X99.001 Y104.845 E0.01580
G1 X96.848 Y106.353 E0.03045
G1 X94.444 Y107.744 E0.03216
G1 X91.971 Y108.897 E0.03160
G1 X89.403 Y109.832 E0.03164
G1 X86.721 Y110.547 E0.03215
G1 X84.132 Y111.004 E0.03045
G1 X82.775 Y111.155 E0.01580
G1 X80.001 Y111.279 E0.03216
G1 X77.271 Y111.159 E0.03164
G1 X74.520 Y110.794 E0.03214
G1 X73.182 Y110.526 E0.01581
G1 X70.642 Y109.845 E0.03045
G1 X68.031 Y108.898 E0.03216
G1 X65.555 Y107.743 E0.03164
G1 X63.152 Y106.353 E0.03215
G1 X60.999 Y104.845 E0.03045
G1 X59.933 Y103.992 E0.01580
G1 X57.884 Y102.118 E0.03216
G1 X56.009 Y100.069 E0.03216
G1 X55.155 Y99.001 E0.01583
G1 X53.647 Y96.848 E0.03045
G1 X52.256 Y94.444 E0.03216
G1 X51.103 Y91.971 E0.03160
G1 X50.168 Y89.403 E0.03164
G1 X49.453 Y86.721 E0.03215
G1 X48.996 Y84.132 E0.03045
G1 X48.845 Y82.775 E0.01580
G1 X48.721 Y80.001 E0.03216
G1 X48.841 Y77.271 E0.03164
G1 X49.206 Y74.520 E0.03214
G1 X49.474 Y73.182 E0.01581
G1 X50.155 Y70.642 E0.03045
G1 X51.102 Y68.031 E0.03216
G1 X52.257 Y65.555 E0.03164
G1 X53.647 Y63.152 E0.03215
G1 X55.155 Y60.999 E0.03045
G1 X56.008 Y59.933 E0.01580
G1 X57.840 Y57.929 E0.03144
M204 S1000
G1 F8640.000
G1 X59.933 Y56.008 E-0.93723
G1 X59.963 Y55.984 E-0.01277
G1 E-0.05000 F3000.00000
G1 Z0.250 F10800.000
G1 X75.683 Y75.683
G1 Z0.100
G1 E1.00000 F3000.00000
M204 S500
G1 F1200.000
G1 X75.797 Y75.762 E0.00161
G1 X76.074 Y75.892 E0.00355
G1 X76.370 Y75.971 E0.00355
G1 X76.675 Y75.998 E0.00355
G1 X76.980 Y75.971 E0.00355
G1 X77.276 Y75.892 E0.00355
G1 X77.553 Y75.762 E0.00355
G1 X77.804 Y75.587 E0.00355
G1 X78.021 Y75.370 E0.00355
G1 X78.197 Y75.119 E0.00355
G1 X78.326 Y74.842 E0.00355
G1 X78.405 Y74.546 E0.00355
G1 X78.432 Y74.241 E0.00355
G1 X78.420 Y74.103 E0.00161
G1 X78.478 Y74.228 E0.00161
G1 X78.654 Y74.479 E0.00355
G1 X78.871 Y74.696 E0.00355
G1 X79.122 Y74.872 E0.00355
G1 X79.399 Y75.001 E0.00355
G1 X79.695 Y75.080 E0.00355
G1 X80.000 Y75.107 E0.00355
G1 X80.305 Y75.080 E0.00355
G1 X80.601 Y75.001 E0.00355
G1 X80.878 Y74.872 E0.00355
G1 X81.129 Y74.696 E0.00355
G1 X81.346 Y74.479 E0.00355
G1 X81.522 Y74.228 E0.00355
G1 X81.580 Y74.103 E0.00161
G1 X81.568 Y74.241 E0.00161
G1 X81.595 Y74.546 E0.00355
G1 X81.674 Y74.842 E0.00355
G1 X81.803 Y75.119 E0.00355
G1 X81.979 Y75.370 E0.00355
G1 X82.196 Y75.587 E0.00355
G1 X82.447 Y75.762 E0.00355
G1 X82.724 Y75.892 E0.00355
G1 X83.020 Y75.971 E0.00355
G1 X83.325 Y75.998 E0.00355
G1 X83.630 Y75.971 E0.00355
G1 X83.926 Y75.892 E0.00355
G1 X84.203 Y75.762 E0.00355
G1 X84.317 Y75.683 E0.00161
G1 X84.238 Y75.797 E0.00161
G1 X84.108 Y76.074 E0.00355
G1 X84.029 Y76.370 E0.00355
G1 X84.002 Y76.675 E0.00355
G1 X84.029 Y76.980 E0.00355
G1 X84.108 Y77.276 E0.00355
G1 X84.238 Y77.553 E0.00355
G1 X84.413 Y77.804 E0.00355
G1 X84.630 Y78.021 E0.00355
G1 X84.881 Y78.197 E0.00355
G1 X85.158 Y78.326 E0.00355
G1 X85.454 Y78.405 E0.00355
G1 X85.759 Y78.432 E0.00355
G1 X85.897 Y78.420 E0.00161
G1 X85.772 Y78.478 E0.00161
G1 X85.521 Y78.654 E0.00355
G1 X85.304 Y78.871 E0.00355
G1 X85.128 Y79.122 E0.00355
G1 X84.999 Y79.399 E0.00355
G1 X84.920 Y79.695 E0.00355
G1 X84.893 Y80.000 E0.00355
G1 X84.920 Y80.305 E0.00355
G1 X84.999 Y80.601 E0.00355
G1 X85.128 Y80.878 E0.00355
G1 X85.304 Y81.129 E0.00355
G1 X85.521 Y81.346 E0.00355
G1 X85.772 Y81.522 E0.00355
G1 X85.897 Y81.580 E0.00161
G1 X85.759 Y81.568 E0.00161
G1 X85.454 Y81.595 E0.00355
G1 X85.158 Y81.674 E0.00355
G1 X84.881 Y81.803 E0.00355
G1 X84.630 Y81.979 E0.00355
G1 X84.413 Y82.196 E0.00355
G1 X84.238 Y82.447 E0.00355
G1 X84.108 Y82.724 E0.00355
G1 X84.029 Y83.020 E0.00355
G1 X84.002 Y83.325 E0.00355
G1 X84.029 Y83.630 E0.00355
G1 X84.108 Y83.926 E0.00355
G1 X84.238 Y84.203 E0.00355
G1 X84.317 Y84.317 E0.00161
G1 X84.203 Y84.238 E0.00161
G1 X83.926 Y84.108 E0.00355
G1 X83.630 Y84.029 E0.00355
G1 X83.325 Y84.002 E0.00355
G1 X83.020 Y84.029 E0.00355
G1 X82.724 Y84.108 E0.00355
G1 X82.447 Y84.238 E0.00355
G1 X82.196 Y84.413 E0.00355
G1 X81.979 Y84.630 E0.00355
G1 X81.803 Y84.881 E0.00355
G1 X81.674 Y85.158 E0.00355
G1 X81.595 Y85.454 E0.00355
G1 X81.568 Y85.759 E0.00355
G1 X81.580 Y85.897 E0.00161
G1 X81.522 Y85.772 E0.00161
G1 X81.346 Y85.521 E0.00355
G1 X81.129 Y85.304 E0.00355
G1 X80.878 Y85.128 E0.00355
G1 X80.601 Y84.999 E0.00355
G1 X80.305 Y84.920 E0.00355
G1 X80.000 Y84.893 E0.00355
G1 X79.695 Y84.920 E0.00355
G1 X79.399 Y84.999 E0.00355
G1 X79.122 Y85.128 E0.00355
G1 X78.871 Y85.304 E0.00355
G1 X78.654 Y85.521 E0.00355
G1 X78.478 Y85.772 E0.00355
G1 X78.420 Y85.897 E0.00161
G1 X78.432 Y85.759 E0.00161
G1 X78.405 Y85.454 E0.00355
G1 X78.326 Y85.158 E0.00355
G1 X78.197 Y84.881 E0.00355
G1 X78.021 Y84.630 E0.00355
G1 X77.804 Y84.413 E0.00355
G1 X77.553 Y84.238 E0.00355
G1 X77.276 Y84.108 E0.00355
G1 X76.980 Y84.029 E0.00355
G1 X76.675 Y84.002 E0.00355
G1 X76.370 Y84.029 E0.00355
G1 X76.074 Y84.108 E0.00355
G1 X75.797 Y84.238 E0.00355
G1 X75.683 Y84.317 E0.00161
G1 X75.762 Y84.203 E0.00161
G1 X75.892 Y83.926 E0.00355
G1 X75.971 Y83.630 E0.00355
G1 X75.998 Y83.325 E0.00355
G1 X75.971 Y83.020 E0.00355
G1 X75.892 Y82.724 E0.00355
G1 X75.762 Y82.447 E0.00355
G1 X75.587 Y82.196 E0.00355
G1 X75.370 Y81.979 E0.00355
G1 X75.119 Y81.803 E0.00355
G1 X74.842 Y81.674 E0.00355
G1 X74.546 Y81.595 E0.00355
G1 X74.241 Y81.568 E0.00355
G1 X74.103 Y81.580 E0.00161
G1 X74.228 Y81.522 E0.00161
G1 X74.479 Y81.346 E0.00355
G1 X74.696 Y81.129 E0.00355
G1 X74.872 Y80.878 E0.00355
G1 X75.001 Y80.601 E0.00355
G1 X75.080 Y80.305 E0.00355
G1 X75.107 Y80.000 E0.00355
G1 X75.080 Y79.695 E0.00355
G1 X75.001 Y79.399 E0.00355
G1 X74.872 Y79.122 E0.00355
G1 X74.696 Y78.871 E0.00355
G1 X74.479 Y78.654 E0.00355
G1 X74.228 Y78.478 E0.00355
G1 X74.103 Y78.420 E0.00161
G1 X74.241 Y78.432 E0.00161
G1 X74.546 Y78.405 E0.00355
G1 X74.842 Y78.326 E0.00355
G1 X75.119 Y78.197 E0.00355
G1 X75.370 Y78.021 E0.00355
G1 X75.587 Y77.804 E0.00355
G1 X75.762 Y77.553 E0.00355
G1 X75.892 Y77.276 E0.00355
G1 X75.971 Y76.980 E0.00355
G1 X75.998 Y76.675 E0.00355
G1 X75.971 Y76.370 E0.00355
G1 X75.892 Y76.074 E0.00355
G1 X75.762 Y75.797 E0.00355
G1 X75.704 Y75.714 E0.00117
M204 S1000
G1 X75.783 Y75.779 F10800.000
G1 X76.219 Y76.219
M204 S500
G1 F1200.000
G1 X76.321 Y76.247 E0.00123
G1 X76.675 Y76.277 E0.00411
G1 X77.029 Y76.247 E0.00411
G1 X77.372 Y76.155 E0.00411
G1 X77.693 Y76.005 E0.00411
G1 X77.984 Y75.801 E0.00411
G1 X78.235 Y75.550 E0.00411
G1 X78.439 Y75.259 E0.00411
G1 X78.589 Y74.937 E0.00411
G1 X78.616 Y74.835 E0.00123
G1 X78.691 Y74.910 E0.00123
G1 X78.982 Y75.114 E0.00411
G1 X79.303 Y75.264 E0.00411
G1 X79.646 Y75.356 E0.00411
G1 X80.000 Y75.387 E0.00411
G1 X80.354 Y75.356 E0.00411
G1 X80.697 Y75.264 E0.00411
G1 X81.018 Y75.114 E0.00411
G1 X81.309 Y74.910 E0.00411
G1 X81.384 Y74.835 E0.00123
G1 X81.411 Y74.937 E0.00123
G1 X81.561 Y75.259 E0.00411
G1 X81.765 Y75.550 E0.00411
G1 X82.016 Y75.801 E0.00411
G1 X82.307 Y76.005 E0.00411
G1 X82.628 Y76.155 E0.00411
G1 X82.971 Y76.247 E0.00411
G1 X83.325 Y76.277 E0.00411
G1 X83.679 Y76.247 E0.00411
G1 X83.781 Y76.219 E0.00123
G1 X83.753 Y76.321 E0.00123
G1 X83.723 Y76.675 E0.00411
G1 X83.753 Y77.029 E0.00411
G1 X83.845 Y77.372 E0.00411
G1 X83.995 Y77.693 E0.00411
G1 X84.199 Y77.984 E0.00411
G1 X84.450 Y78.235 E0.00411
G1 X84.741 Y78.439 E0.00411
G1 X85.063 Y78.589 E0.00411
G1 X85.165 Y78.616 E0.00123
G1 X85.090 Y78.691 E0.00123
G1 X84.886 Y78.982 E0.00411
G1 X84.736 Y79.303 E0.00411
G1 X84.644 Y79.646 E0.00411
G1 X84.613 Y80.000 E0.00411
G1 X84.644 Y80.354 E0.00411
G1 X84.736 Y80.697 E0.00411
G1 X84.886 Y81.018 E0.00411
G1 X85.090 Y81.309 E0.00411
G1 X85.165 Y81.384 E0.00123
G1 X85.063 Y81.411 E0.00123
G1 X84.741 Y81.561 E0.00411
G1 X84.450 Y81.765 E0.00411
G1 X84.199 Y82.016 E0.00411
G1 X83.995 Y82.307 E0.00411
G1 X83.845 Y82.628 E0.00411
G1 X83.753 Y82.971 E0.00411
G1 X83.723 Y83.325 E0.00411
G1 X83.753 Y83.679 E0.00411
G1 X83.781 Y83.781 E0.00123
G1 X83.679 Y83.753 E0.00123
G1 X83.325 Y83.723 E0.00411
G1 X82.971 Y83.753 E0.00411
G1 X82.628 Y83.845 E0.00411
G1 X82.307 Y83.995 E0.00411
G1 X82.016 Y84.199 E0.00411
G1 X81.765 Y84.450 E0.00411
G1 X81.561 Y84.741 E0.00411
G1 X81.411 Y85.063 E0.00411
G1 X81.384 Y85.165 E0.00123
G1 X81.309 Y85.090 E0.00123
G1 X81.018 Y84.886 E0.00411
G1 X80.697 Y84.736 E0.00411
G1 X80.354 Y84.644 E0.00411
G1 X80.000 Y84.613 E0.00411
G1 X79.646 Y84.644 E0.00411
G1 X79.303 Y84.736 E0.00411
G1 X78.982 Y84.886 E0.00411
G1 X78.691 Y85.090 E0.00411
G1 X78.616 Y85.165 E0.00123
G1 X78.589 Y85.063 E0.00123
G1 X78.439 Y84.741 E0.00411
G1 X78.235 Y84.450 E0.00411
G1 X77.984 Y84.199 E0.00411
G1 X77.693 Y83.995 E0.00411
G1 X77.372 Y83.845 E0.00411
G1 X77.029 Y83.753 E0.00411
G1 X76.675 Y83.723 E0.00411
G1 X76.321 Y83.753 E0.00411
G1 X76.219 Y83.781 E0.00123
G1 X76.247 Y83.679 E0.00123
G1 X76.277 Y83.325 E0.00411
G1 X76.247 Y82.971 E0.00411
G1 X76.155 Y82.628 E0.00411
G1 X76.005 Y82.307 E0.00411
G1 X75.801 Y82.016 E0.00411
G1 X75.550 Y81.765 E0.00411
G1 X75.259 Y81.561 E0.00411
G1 X74.937 Y81.411 E0.00411
G1 X74.835 Y81.384 E0.00123
G1 X74.910 Y81.309 E0.00123
G1 X75.114 Y81.018 E0.00411
G1 X75.264 Y80.697 E0.00411
G1 X75.356 Y80.354 E0.00411
G1 X75.387 Y80.000 E0.00411
G1 X75.356 Y79.646 E0.00411
G1 X75.264 Y79.303 E0.00411
G1 X75.114 Y78.982 E0.00411
G1 X74.910 Y78.691 E0.00411
G1 X74.835 Y78.616 E0.00123
G1 X74.937 Y78.589 E0.00123
G1 X75.259 Y78.439 E0.00411
G1 X75.550 Y78.235 E0.00411
G1 X75.801 Y77.984 E0.00411
G1 X76.005 Y77.693 E0.00411
G1 X76.155 Y77.372 E0.00411
G1 X76.247 Y77.029 E0.00411
G1 X76.277 Y76.675 E0.00411
G1 X76.229 Y76.255 E0.00489
M204 S1000
G1 X76.546 Y76.546 F10800.000
M204 S500
G1 F1200.000
G1 X76.675 Y76.557 E0.00150
G1 X77.077 Y76.522 E0.00468
G1 X77.467 Y76.417 E0.00468
G1 X77.833 Y76.247 E0.00468
G1 X78.164 Y76.015 E0.00468
G1 X78.449 Y75.730 E0.00468
G1 X78.681 Y75.399 E0.00468
G1 X78.736 Y75.281 E0.00150
G1 X78.842 Y75.356 E0.00150
G1 X79.208 Y75.526 E0.00468
G1 X79.598 Y75.631 E0.00468
G1 X80.000 Y75.666 E0.00468
G1 X80.402 Y75.631 E0.00468
G1 X80.792 Y75.526 E0.00468
G1 X81.158 Y75.356 E0.00468
G1 X81.264 Y75.281 E0.00150
G1 X81.319 Y75.399 E0.00150
G1 X81.551 Y75.730 E0.00468
G1 X81.836 Y76.015 E0.00468
G1 X82.167 Y76.247 E0.00468
G1 X82.533 Y76.417 E0.00468
G1 X82.923 Y76.522 E0.00468
G1 X83.325 Y76.557 E0.00468
G1 X83.454 Y76.546 E0.00150
G1 X83.443 Y76.675 E0.00150
G1 X83.478 Y77.077 E0.00468
G1 X83.583 Y77.467 E0.00468
G1 X83.753 Y77.833 E0.00468
G1 X83.985 Y78.164 E0.00468
G1 X84.270 Y78.449 E0.00468
G1 X84.601 Y78.681 E0.00468
G1 X84.719 Y78.736 E0.00150
G1 X84.644 Y78.842 E0.00150
G1 X84.474 Y79.208 E0.00468
G1 X84.369 Y79.598 E0.00468
G1 X84.334 Y80.000 E0.00468
G1 X84.369 Y80.402 E0.00468
G1 X84.474 Y80.792 E0.00468
G1 X84.644 Y81.158 E0.00468
G1 X84.719 Y81.264 E0.00150
G1 X84.601 Y81.319 E0.00150
G1 X84.270 Y81.551 E0.00468
G1 X83.985 Y81.836 E0.00468
G1 X83.753 Y82.167 E0.00468
G1 X83.583 Y82.533 E0.00468
G1 X83.478 Y82.923 E0.00468
G1 X83.443 Y83.325 E0.00468
G1 X83.454 Y83.454 E0.00150
G1 X83.325 Y83.443 E0.00150
