; generated by PrusaSlicer 2.3.3+win64 on 2021-08-10 at 03:57:12 UTC

; 

; external perimeters extrusion width = 0.25mm
; perimeters extrusion width = 0.25mm
; infill extrusion width = 0.25mm
; solid infill extrusion width = 0.25mm
; top infill extrusion width = 0.25mm
; first layer extrusion width = 0.30mm

M73 P0 R62
M201 X9000 Y9000 Z500 E10000 ; sets maximum accelerations, mm/sec^2
M203 X500 Y500 Z12 E120 ; sets maximum feedrates, mm/sec
M204 P2000 R1500 T2000 ; sets acceleration (P, T) and retract acceleration (R), mm/sec^2
M205 X10.00 Y10.00 Z0.20 E2.50 ; sets the jerk limits, mm/sec
M205 S0 T0 ; sets the minimum extruding and travel feed rate, mm/sec
M107
;TYPE:Custom
M862.3 P "MK2S" ; printer model check
M862.1 P0.25 ; nozzle diameter check
M115 U3.2.3 ; tell printer latest fw version
G90 ; use absolute coordinates
M83 ; extruder relative mode
M204 S2000 T1500 ; MK2 firmware only supports the old M204 format
M104 S215 ; set extruder temp
M140 S60 ; set bed temp
M190 S60 ; wait for bed temp
M109 S215 ; wait for extruder temp
G28 W ; home all without mesh bed level
G80 ; mesh bed leveling
G1 Y-3.0 F1000.0 ; go outside print area
G92 E0.0
G1 X60.0 E9.0  F1000.0 ; intro line
G1 X100.0 E12.5 F1000.0 ; intro line
G92 E0.0
G21 ; set units to millimeters
G90 ; use absolute coordinates
M83 ; use relative distances for extrusion
M900 K0.05 ; Filament gcode LA 1.5
M900 K30 ; Filament gcode LA 1.0
;LAYER_CHANGE
;Z:0.1
;HEIGHT:0.1
;BEFORE_LAYER_CHANGE
G92 E0.0
;0.1


G1 E-1.00000 F3000.000
G1 Z0.150 F10800.000
;AFTER_LAYER_CHANGE
;0.1
G1 X45.278 Y36.225
G1 Z0.100
G1 E1.00000 F3000.000
M204 S500
;TYPE:Skirt
;WIDTH:0.3
G1 F1200.000
G1 X46.108 Y35.187 E0.01539
G1 X48.274 Y32.819 E0.03717
G1 X50.643 Y30.652 E0.03718
G1 X51.875 Y29.666 E0.01827
G1 X54.367 Y27.921 E0.03524
G1 X57.145 Y26.314 E0.03717
G1 X60.004 Y24.981 E0.03653
G1 X63.022 Y23.885 E0.03718
G1 X64.537 Y23.446 E0.01827
G1 X67.508 Y22.788 E0.03524
G1 X70.690 Y22.366 E0.03717
G1 X73.845 Y22.228 E0.03657
G1 X77.048 Y22.371 E0.03713
G1 X80.065 Y22.768 E0.03524
G1 X81.613 Y23.074 E0.01827
G1 X84.714 Y23.901 E0.03717
G1 X87.678 Y24.980 E0.03653
G1 X90.540 Y26.315 E0.03657
G1 X93.315 Y27.921 E0.03714
G1 X95.808 Y29.666 E0.03524
G1 X97.040 Y30.652 E0.01827
G1 X99.408 Y32.818 E0.03717
G1 X101.575 Y35.187 E0.03718
G1 X102.560 Y36.419 E0.01827
G1 X104.306 Y38.911 E0.03524
G1 X105.913 Y41.689 E0.03717
G1 X107.246 Y44.548 E0.03653
G1 X108.326 Y47.516 E0.03658
G1 X109.153 Y50.614 E0.03713
G1 X109.458 Y52.162 E0.01827
G1 X109.855 Y55.178 E0.03524
G1 X109.999 Y58.385 E0.03717
G1 X109.861 Y61.540 E0.03657
G1 X109.439 Y64.719 E0.03713
G1 X108.780 Y67.689 E0.03524
G1 X108.341 Y69.204 E0.01827
G1 X107.247 Y72.221 E0.03717
G1 X105.912 Y75.084 E0.03657
G1 X104.306 Y77.859 E0.03714
G1 X102.560 Y80.352 E0.03524
G1 X101.575 Y81.583 E0.01827
G1 X99.409 Y83.952 E0.03717
G1 X97.040 Y86.118 E0.03718
G1 X95.808 Y87.104 E0.01827
G1 X93.315 Y88.849 E0.03524
G1 X90.537 Y90.457 E0.03717
G1 X87.679 Y91.790 E0.03653
G1 X84.711 Y92.870 E0.03658
G1 X81.613 Y93.697 E0.03713
G1 X80.065 Y94.002 E0.01827
G1 X77.048 Y94.399 E0.03524
G1 X73.842 Y94.542 E0.03717
G1 X70.687 Y94.404 E0.03657
G1 X67.508 Y93.983 E0.03713
G1 X64.537 Y93.324 E0.03524
G1 X63.018 Y92.884 E0.01831
G1 X60.005 Y91.790 E0.03712
G1 X57.143 Y90.455 E0.03657
G1 X54.367 Y88.849 E0.03714
G1 X51.875 Y87.104 E0.03524
G1 X50.643 Y86.118 E0.01827
G1 X48.275 Y83.952 E0.03717
G1 X46.108 Y81.583 E0.03718
G1 X45.123 Y80.352 E0.01827
G1 X43.377 Y77.859 E0.03524
G1 X41.770 Y75.081 E0.03717
G1 X40.437 Y72.222 E0.03653
G1 X39.357 Y69.254 E0.03658
G1 X38.530 Y66.156 E0.03713
G1 X38.225 Y64.609 E0.01827
G1 X37.827 Y61.592 E0.03524
G1 X37.684 Y58.386 E0.03717
G1 X37.822 Y55.230 E0.03657
G1 X38.244 Y52.052 E0.03713
G1 X38.903 Y49.081 E0.03524
G1 X39.342 Y47.566 E0.01827
G1 X40.436 Y44.549 E0.03717
G1 X41.771 Y41.687 E0.03657
G1 X43.377 Y38.911 E0.03714
G1 X45.123 Y36.419 E0.03524
G1 X45.254 Y36.254 E0.00244
M204 S1000
G1 X45.472 Y36.428 F10800.000
M204 S500
G1 F1200.000
G1 X46.325 Y35.361 E0.01582
G1 X48.471 Y33.016 E0.03681
G1 X50.781 Y30.899 E0.03629
G1 X53.303 Y28.967 E0.03679
G1 X54.606 Y28.099 E0.01813
G1 X57.231 Y26.584 E0.03510
G1 X60.110 Y25.238 E0.03681
G1 X63.098 Y24.153 E0.03681
G1 X64.604 Y23.717 E0.01816
G1 X67.562 Y23.061 E0.03509
G1 X70.713 Y22.643 E0.03681
G1 X73.844 Y22.507 E0.03629
G1 X77.016 Y22.648 E0.03676
G1 X78.574 Y22.821 E0.01816
G1 X81.558 Y23.347 E0.03510
G1 X84.629 Y24.167 E0.03681
G1 X87.570 Y25.237 E0.03625
G1 X90.410 Y26.562 E0.03629
G1 X93.161 Y28.153 E0.03679
G1 X95.643 Y29.891 E0.03509
G1 X96.865 Y30.869 E0.01813
G1 X99.211 Y33.014 E0.03681
G1 X101.328 Y35.325 E0.03629
G1 X103.259 Y37.847 E0.03679
G1 X104.127 Y39.150 E0.01813
G1 X105.643 Y41.774 E0.03510
G1 X106.988 Y44.654 E0.03681
G1 X108.060 Y47.599 E0.03629
G1 X108.880 Y50.668 E0.03679
G1 X109.183 Y52.204 E0.01813
G1 X109.579 Y55.209 E0.03510
G1 X109.720 Y58.384 E0.03681
G1 X109.583 Y61.515 E0.03629
G1 X109.166 Y64.664 E0.03679
G1 X108.510 Y67.623 E0.03509
G1 X108.074 Y69.126 E0.01813
G1 X106.989 Y72.114 E0.03681
G1 X105.665 Y74.954 E0.03629
G1 X104.074 Y77.704 E0.03679
G1 X102.336 Y80.187 E0.03509
G1 X101.358 Y81.409 E0.01813
G1 X99.212 Y83.754 E0.03681
G1 X96.902 Y85.871 E0.03629
G1 X94.380 Y87.803 E0.03679
G1 X93.077 Y88.671 E0.01813
G1 X90.452 Y90.186 E0.03510
G1 X87.573 Y91.532 E0.03681
G1 X84.628 Y92.604 E0.03629
G1 X81.558 Y93.423 E0.03679
G1 X80.023 Y93.727 E0.01813
G1 X77.018 Y94.122 E0.03510
G1 X73.843 Y94.264 E0.03681
G1 X70.712 Y94.127 E0.03629
G1 X67.562 Y93.709 E0.03679
G1 X64.604 Y93.053 E0.03509
G1 X63.100 Y92.618 E0.01813
G1 X60.112 Y91.533 E0.03681
G1 X57.272 Y90.209 E0.03629
G1 X54.522 Y88.618 E0.03679
G1 X52.040 Y86.879 E0.03509
G1 X50.818 Y85.901 E0.01813
G1 X48.472 Y83.756 E0.03681
G1 X46.355 Y81.446 E0.03629
G1 X44.423 Y78.923 E0.03679
G1 X43.556 Y77.620 E0.01813
G1 X42.040 Y74.996 E0.03510
G1 X40.694 Y72.117 E0.03681
G1 X39.623 Y69.172 E0.03629
G1 X38.803 Y66.102 E0.03679
G1 X38.500 Y64.566 E0.01813
G1 X38.104 Y61.562 E0.03510
G1 X37.963 Y58.386 E0.03681
G1 X38.100 Y55.256 E0.03629
G1 X38.517 Y52.106 E0.03679
G1 X39.173 Y49.147 E0.03509
G1 X39.609 Y47.644 E0.01813
G1 X40.693 Y44.656 E0.03681
G1 X42.018 Y41.816 E0.03629
G1 X43.609 Y39.066 E0.03679
G1 X45.448 Y36.457 E0.03696
M204 S1000
;WIPE_START
G1 F8640.000
G1 X46.325 Y35.361 E-0.46303
G1 X47.322 Y34.272 E-0.48697
;WIPE_END
G1 E-0.05000 F3000.000
G1 Z0.250 F10800.000
G1 X68.087 Y88.325
G1 Z0.100
G1 E1.00000 F3000.000
M204 S500
;TYPE:Perimeter
G1 F1200.000
G1 X67.971 Y88.895 E0.00673
G1 X68.080 Y88.362 E0.00630
M204 S1000
;WIPE_START
G1 F8640.000
G1 X67.971 Y88.895 E-0.17945
G1 X68.080 Y88.362 E-0.17945
;WIPE_END
G1 E-0.64110 F3000.000
G1 Z0.250 F10800.000
G1 X75.874 Y87.162
G1 Z0.100
G1 E1.00000 F3000.000
M204 S500
G1 F1200.000
G1 X75.824 Y86.519 E0.00747
G1 X76.331 Y86.478 E0.00590
G1 X76.376 Y87.122 E0.00748
G1 X75.912 Y87.159 E0.00540
M204 S1000
;WIPE_START
G1 F8640.000
G1 X75.824 Y86.519 E-0.21305
G1 X76.331 Y86.478 E-0.16801
G1 X76.376 Y87.122 E-0.21298
G1 X75.912 Y87.159 E-0.15370
;WIPE_END
G1 E-0.25226 F3000.000
G1 Z0.250 F10800.000
G1 X74.579 Y66.811
G1 Z0.100
G1 E1.00000 F3000.000
M204 S500
G1 F1200.000
G1 X73.841 Y66.843 E0.00855
G1 X73.104 Y66.811 E0.00854
G1 X72.380 Y66.715 E0.00846
G1 X71.997 Y66.639 E0.00452
G1 X71.298 Y66.451 E0.00838
G1 X70.605 Y66.199 E0.00854
G1 X69.951 Y65.895 E0.00835
G1 X69.606 Y65.706 E0.00455
G1 X68.990 Y65.313 E0.00846
G1 X68.405 Y64.864 E0.00854
G1 X67.861 Y64.366 E0.00854
G1 X67.362 Y63.822 E0.00854
G1 X66.913 Y63.236 E0.00855
G1 X66.521 Y62.620 E0.00846
G1 X66.331 Y62.272 E0.00459
G1 X66.027 Y61.622 E0.00831
G1 X65.774 Y60.925 E0.00858
G1 X65.586 Y60.223 E0.00842
G1 X65.511 Y59.846 E0.00445
G1 X65.416 Y59.122 E0.00845
G1 X65.384 Y58.385 E0.00854
G1 X65.416 Y57.648 E0.00854
G1 X65.511 Y56.924 E0.00845
G1 X65.586 Y56.547 E0.00445
G1 X65.774 Y55.845 E0.00842
G1 X66.027 Y55.149 E0.00858
G1 X66.336 Y54.487 E0.00846
G1 X66.521 Y54.150 E0.00445
G1 X66.897 Y53.558 E0.00812
G1 X67.362 Y52.949 E0.00887
G1 X67.861 Y52.405 E0.00856
G1 X68.405 Y51.906 E0.00854
G1 X68.990 Y51.457 E0.00854
G1 X69.606 Y51.064 E0.00846
G1 X69.951 Y50.876 E0.00455
G1 X70.605 Y50.571 E0.00835
G1 X71.298 Y50.319 E0.00854
G1 X72.011 Y50.128 E0.00854
G1 X72.730 Y50.001 E0.00846
G1 X73.112 Y49.959 E0.00445
G1 X73.816 Y49.928 E0.00816
G1 X74.578 Y49.959 E0.00883
G1 X75.303 Y50.055 E0.00847
G1 X75.685 Y50.131 E0.00452
G1 X76.385 Y50.319 E0.00838
G1 X77.078 Y50.571 E0.00854
G1 X77.732 Y50.876 E0.00835
G1 X78.077 Y51.064 E0.00455
G1 X78.693 Y51.457 E0.00846
G1 X79.278 Y51.906 E0.00854
G1 X79.822 Y52.405 E0.00854
G1 X80.320 Y52.949 E0.00854
G1 X80.770 Y53.534 E0.00855
G1 X81.162 Y54.150 E0.00846
G1 X81.352 Y54.498 E0.00459
G1 X81.656 Y55.149 E0.00831
G1 X81.909 Y55.845 E0.00858
G1 X82.097 Y56.547 E0.00842
G1 X82.172 Y56.924 E0.00445
G1 X82.267 Y57.648 E0.00845
G1 X82.299 Y58.385 E0.00854
G1 X82.267 Y59.122 E0.00854
G1 X82.172 Y59.846 E0.00846
G1 X82.097 Y60.223 E0.00445
G1 X81.909 Y60.925 E0.00842
G1 X81.655 Y61.622 E0.00858
G1 X81.347 Y62.283 E0.00846
G1 X81.162 Y62.620 E0.00445
G1 X80.786 Y63.212 E0.00812
G1 X80.321 Y63.821 E0.00887
G1 X79.822 Y64.366 E0.00856
G1 X79.278 Y64.864 E0.00854
G1 X78.693 Y65.313 E0.00854
G1 X78.077 Y65.706 E0.00846
G1 X77.732 Y65.895 E0.00455
G1 X77.078 Y66.199 E0.00835
G1 X76.392 Y66.449 E0.00845
G1 X76.023 Y66.556 E0.00445
G1 X75.316 Y66.713 E0.00839
G1 X74.616 Y66.806 E0.00817
M204 S1000
G1 X74.579 Y66.530 F10800.000
M204 S500
G1 F1200.000
G1 X73.841 Y66.564 E0.00856
G1 X73.129 Y66.533 E0.00826
G1 X72.426 Y66.440 E0.00821
G1 X72.061 Y66.368 E0.00431
G1 X71.382 Y66.186 E0.00814
G1 X70.712 Y65.942 E0.00826
G1 X70.077 Y65.646 E0.00811
G1 X69.748 Y65.466 E0.00434
G1 X69.150 Y65.085 E0.00821
G1 X68.584 Y64.651 E0.00826
G1 X68.058 Y64.168 E0.00826
G1 X67.576 Y63.642 E0.00826
G1 X67.142 Y63.076 E0.00826
G1 X66.761 Y62.478 E0.00821
G1 X66.579 Y62.146 E0.00438
G1 X66.285 Y61.515 E0.00807
G1 X66.040 Y60.842 E0.00830
G1 X65.858 Y60.160 E0.00817
G1 X65.786 Y59.801 E0.00424
G1 X65.694 Y59.098 E0.00821
G1 X65.663 Y58.385 E0.00826
G1 X65.694 Y57.672 E0.00826
G1 X65.786 Y56.970 E0.00821
G1 X65.858 Y56.610 E0.00424
G1 X66.040 Y55.929 E0.00817
G1 X66.285 Y55.255 E0.00830
G1 X66.585 Y54.613 E0.00821
G1 X66.761 Y54.292 E0.00424
G1 X67.126 Y53.718 E0.00788
G1 X67.576 Y53.128 E0.00859
G1 X68.058 Y52.602 E0.00827
G1 X68.584 Y52.120 E0.00826
G1 X69.150 Y51.685 E0.00826
G1 X69.748 Y51.304 E0.00821
G1 X70.077 Y51.124 E0.00434
G1 X70.712 Y50.829 E0.00811
G1 X71.382 Y50.585 E0.00826
G1 X72.071 Y50.400 E0.00826
G1 X72.769 Y50.277 E0.00821
G1 X73.133 Y50.237 E0.00424
G1 X73.816 Y50.207 E0.00792
G1 X74.554 Y50.237 E0.00855
G1 X75.257 Y50.330 E0.00822
G1 X75.622 Y50.403 E0.00431
G1 X76.301 Y50.585 E0.00814
G1 X76.971 Y50.829 E0.00826
G1 X77.606 Y51.124 E0.00811
G1 X77.935 Y51.304 E0.00434
G1 X78.533 Y51.685 E0.00821
G1 X79.099 Y52.120 E0.00826
G1 X79.625 Y52.602 E0.00826
G1 X80.107 Y53.128 E0.00826
G1 X80.541 Y53.694 E0.00826
G1 X80.922 Y54.292 E0.00821
G1 X81.104 Y54.624 E0.00438
G1 X81.398 Y55.255 E0.00807
G1 X81.643 Y55.929 E0.00830
G1 X81.825 Y56.610 E0.00817
G1 X81.897 Y56.970 E0.00424
G1 X81.989 Y57.672 E0.00821
G1 X82.020 Y58.385 E0.00826
G1 X81.989 Y59.098 E0.00826
G1 X81.897 Y59.801 E0.00821
G1 X81.825 Y60.160 E0.00424
G1 X81.643 Y60.842 E0.00817
G1 X81.398 Y61.515 E0.00830
G1 X81.098 Y62.157 E0.00821
G1 X80.922 Y62.478 E0.00424
G1 X80.557 Y63.053 E0.00788
G1 X80.107 Y63.642 E0.00859
G1 X79.625 Y64.169 E0.00827
G1 X79.099 Y64.651 E0.00826
G1 X78.533 Y65.085 E0.00826
G1 X77.935 Y65.466 E0.00821
G1 X77.606 Y65.646 E0.00434
G1 X76.971 Y65.942 E0.00811
G1 X76.305 Y66.184 E0.00821
G1 X75.954 Y66.286 E0.00424
G1 X75.267 Y66.439 E0.00814
G1 X74.617 Y66.525 E0.00760
M204 S1000
G1 X74.580 Y66.249 F10800.000
M204 S500
;TYPE:External perimeter
G1 F1200.000
G1 X73.841 Y66.285 E0.00856
G1 X73.153 Y66.255 E0.00798
G1 X72.471 Y66.165 E0.00796
G1 X72.124 Y66.096 E0.00410
G1 X71.466 Y65.920 E0.00789
G1 X70.818 Y65.684 E0.00798
G1 X70.203 Y65.397 E0.00786
G1 X69.890 Y65.226 E0.00413
G1 X69.310 Y64.857 E0.00796
G1 X68.763 Y64.437 E0.00798
G1 X68.255 Y63.971 E0.00798
G1 X67.790 Y63.463 E0.00798
G1 X67.370 Y62.916 E0.00798
G1 X67.001 Y62.336 E0.00796
G1 X66.828 Y62.021 E0.00417
G1 X66.543 Y61.408 E0.00782
G1 X66.306 Y60.758 E0.00801
G1 X66.129 Y60.097 E0.00793
G1 X66.061 Y59.755 E0.00403
G1 X65.971 Y59.074 E0.00796
G1 X65.941 Y58.385 E0.00798
G1 X65.971 Y57.697 E0.00798
G1 X66.061 Y57.015 E0.00796
G1 X66.129 Y56.674 E0.00403
G1 X66.306 Y56.012 E0.00793
M73 P1 R62
G1 X66.543 Y55.362 E0.00802
G1 X66.833 Y54.739 E0.00796
G1 X67.001 Y54.434 E0.00403
G1 X67.355 Y53.877 E0.00764
G1 X67.789 Y53.307 E0.00830
G1 X68.255 Y52.799 E0.00798
G1 X68.763 Y52.333 E0.00798
G1 X69.310 Y51.914 E0.00798
G1 X69.890 Y51.544 E0.00796
G1 X70.203 Y51.373 E0.00413
G1 X70.818 Y51.086 E0.00786
G1 X71.466 Y50.851 E0.00798
G1 X72.132 Y50.672 E0.00798
G1 X72.809 Y50.553 E0.00796
G1 X73.155 Y50.515 E0.00403
G1 X73.817 Y50.486 E0.00767
G1 X74.530 Y50.515 E0.00827
G1 X75.212 Y50.605 E0.00796
G1 X75.559 Y50.674 E0.00410
G1 X76.217 Y50.851 E0.00789
G1 X76.865 Y51.086 E0.00798
G1 X77.480 Y51.373 E0.00786
G1 X77.793 Y51.544 E0.00413
G1 X78.373 Y51.914 E0.00796
G1 X78.920 Y52.333 E0.00798
G1 X79.428 Y52.799 E0.00798
G1 X79.893 Y53.307 E0.00798
G1 X80.313 Y53.854 E0.00798
G1 X80.682 Y54.434 E0.00796
G1 X80.855 Y54.750 E0.00417
G1 X81.140 Y55.362 E0.00782
G1 X81.377 Y56.012 E0.00801
G1 X81.554 Y56.674 E0.00793
G1 X81.622 Y57.015 E0.00403
G1 X81.712 Y57.697 E0.00796
G1 X81.742 Y58.385 E0.00798
G1 X81.712 Y59.074 E0.00798
G1 X81.622 Y59.755 E0.00796
G1 X81.554 Y60.097 E0.00403
G1 X81.377 Y60.758 E0.00793
G1 X81.140 Y61.408 E0.00802
G1 X80.850 Y62.032 E0.00796
G1 X80.682 Y62.337 E0.00403
G1 X80.328 Y62.893 E0.00764
G1 X79.893 Y63.463 E0.00830
G1 X79.428 Y63.971 E0.00798
G1 X78.920 Y64.437 E0.00798
G1 X78.373 Y64.857 E0.00798
G1 X77.793 Y65.226 E0.00796
G1 X77.480 Y65.397 E0.00413
G1 X76.865 Y65.684 E0.00786
G1 X76.219 Y65.919 E0.00796
G1 X75.885 Y66.016 E0.00403
G1 X75.219 Y66.164 E0.00790
G1 X74.617 Y66.244 E0.00702
M204 S1000
G1 X74.476 Y66.476 F10800.000
;WIPE_START
G1 F8640.000
G1 X73.841 Y66.285 E-0.25629
G1 X73.153 Y66.255 E-0.22734
G1 X72.471 Y66.165 E-0.22682
G1 X72.124 Y66.096 E-0.11670
G1 X71.765 Y66.000 E-0.12286
;WIPE_END
G1 E-0.05000 F3000.000
G1 Z0.250 F10800.000
G1 X59.694 Y44.505
G1 Z0.100
G1 E1.00000 F3000.000
M204 S500
;TYPE:Perimeter
G1 F1200.000
G1 X53.903 Y38.401 E0.09744
G1 X55.243 Y37.178 E0.02102
G1 X56.090 Y36.464 E0.01283
G1 X56.964 Y35.784 E0.01283
G1 X57.865 Y35.139 E0.01283
G1 X58.790 Y34.530 E0.01283
G1 X59.738 Y33.957 E0.01283
G1 X60.708 Y33.422 E0.01283
G1 X61.698 Y32.926 E0.01283
G1 X62.707 Y32.469 E0.01283
G1 X63.733 Y32.051 E0.01283
G1 X64.775 Y31.675 E0.01283
G1 X66.504 Y31.125 E0.02102
G1 X68.894 Y39.193 E0.09744
G1 X67.479 Y39.643 E0.01719
G1 X66.748 Y39.907 E0.00900
G1 X66.028 Y40.200 E0.00900
G1 X65.320 Y40.520 E0.00900
G1 X64.626 Y40.869 E0.00900
G1 X63.945 Y41.244 E0.00900
G1 X63.280 Y41.646 E0.00900
G1 X62.631 Y42.073 E0.00900
G1 X61.999 Y42.526 E0.00900
G1 X61.385 Y43.003 E0.00900
G1 X60.791 Y43.504 E0.00900
G1 X59.722 Y44.479 E0.01676
M204 S1000
G1 X59.709 Y44.115 F10800.000
M204 S500
G1 F1200.000
G1 X54.300 Y38.415 E0.09099
G1 X55.427 Y37.387 E0.01766
G1 X56.265 Y36.681 E0.01270
G1 X57.131 Y36.007 E0.01270
G1 X58.022 Y35.368 E0.01270
G1 X58.938 Y34.765 E0.01270
G1 X59.877 Y34.198 E0.01270
G1 X60.837 Y33.669 E0.01270
G1 X61.818 Y33.177 E0.01270
G1 X62.817 Y32.725 E0.01270
G1 X63.833 Y32.312 E0.01270
G1 X64.864 Y31.939 E0.01270
G1 X66.318 Y31.477 E0.01766
G1 X68.549 Y39.011 E0.09099
G1 X67.390 Y39.379 E0.01409
G1 X66.649 Y39.647 E0.00913
G1 X65.918 Y39.944 E0.00913
G1 X65.201 Y40.269 E0.00913
G1 X64.496 Y40.622 E0.00913
G1 X63.806 Y41.003 E0.00913
G1 X63.131 Y41.410 E0.00913
G1 X62.473 Y41.844 E0.00913
G1 X61.832 Y42.303 E0.00913
G1 X61.210 Y42.787 E0.00913
G1 X60.607 Y43.295 E0.00913
G1 X59.736 Y44.089 E0.01366
M204 S1000
G1 X59.723 Y43.725 F10800.000
M204 S500
